X:1
T:Title
%%score { ( 1 3 ) | ( 2 4 ) }
L:1/8
Q:1/4=96
M:4/4
K:G
V:1 treble nm="Grand Piano"
V:3 treble 
V:2 bass 
V:4 bass 
V:1
 [DB]3 [Ec] [DB][CDF][B,DA][B,^DG] | [G,EG]4 [DF]2 E2 | D3 G GGFG | A4 z2 [Ac]2 | %4
w: Ira~D.~Sankey * * * * *||||
 [DGB]3 [EGc] [DGB][CDF][B,DA][B,^DG] | z4 [DF]2 z2 | %6
w: ||
 [F,CD]3 [G,B,E][K:treble] [A,CF][EFc] [DFB]>[CFA] | [B,G]6 z2 | %8
w: ||
 [CFA]3 [B,G] [A,DF][A,EG][DFA][DAc] | B4 d2 z2 | d3 d ^cd e>[EGc] | [Fd]4 [G^c]2 [A=c]2 | %12
w: ||||
 B3 d cB[CEA][G,E] | z4 [DF]2 z2 | [F,CD]3 [G,B,E][K:treble] [A,CF][EFc] [DFB]>[CFA] | %15
w: |||
 [G,B,G]6 z2 |] %16
w: |
V:2
 [G,,G,]3 [G,,G,] [G,,G,]A,,B,,B,, | C,4 C,2 [E,C]2 | [G,B,]3 [G,B,D] [G,B,D][B,D][A,CD][G,B,D] | %3
 z4[K:treble] d2[K:bass] F,2 | G,3 G, G,,A,,B,,B,, | C,4 z2 C2 | D,3 D, D,D, D,>D, | G,6 z2 | %8
 D,3 D, D,D,D,F, | [G,DG]4 [G,B,G]2 z2 | [A,DF]3 [A,DF] [A,EG][A,DF][K:bass] [A,,A,^CG]>[A,,A,] | %11
 [D,D]4 [E,A,]2 [F,D]2 | [G,DG]3 [G,B,=F] [G,CE][G,DF][K:bass]C,C, | B,,4 z2 C2 | %14
 D,3 D, D,D, D,>D, | G,,6 z2 |] %16
V:3
 x8 | z4 G,4 | x8 | [D-F]6 D2 | x8 | [G,EG]4 G,2- [G,E]2 | x4[K:treble] x4 | x8 | x8 | x8 | x8 | %11
 x8 | x8 | [G,DG]4 G,2- [G,E]2 | x4[K:treble] x4 | x8 |] %16
V:4
 x8 | x8 | x8 | D,6[K:treble][K:bass] z2 | x8 | z4 C,4 | x8 | x8 | x8 | x8 | x6[K:bass] x2 | x8 | %12
 x6[K:bass] x2 | z4 C,4 | x8 | x8 |] %16

